X: 34886
T: Robin Who Ate The Blue Bag
R: reel
M: 4/4
K: Adorian
EAAG ~A3G|AcBG AGEA|DEFA ~G3F|GABd AGED|
EAAG ABcA|BAGB AGED|EGAB edBG|1 AcBG A2 AG:|2 AcBG A3z||
cgec BGdB|AcBG AGED|cgec Bdga|bagb a3z|
ae~e2 aged|cABG AGED|EAAG ABcA|BAGB A3z:|

